korla/apps/scalable/veracrypt.svg

<!DOCTYPE svg  PUBLIC '-//W3C//DTD SVG 1.1//EN'  'http://www.w3.org/Graphics/SVG/1.1/DTD/svg11.dtd'>
<svg style="clip-rule:evenodd;fill-rule:evenodd;stroke-linejoin:round;stroke-miterlimit:1.41421" version="1.1" viewBox="0 0 64 64" xmlns="http://www.w3.org/2000/svg">
 <g transform="matrix(0,-1.05232,-1.05232,0,-1.67435,-1.67435)">
  <path d="m-4-47.397c0-6.956-5.647-12.603-12.603-12.603h-30.794c-6.956 0-12.603 5.647-12.603 12.603v30.794c0 6.956 5.647 12.603 12.603 12.603h30.794c6.956 0 12.603-5.647 12.603-12.603v-30.794z" style="fill:url(#_Linear1)"/>
 </g>
 <path d="m10 14h10l10.538 36.67 0.712 3.33h-9.25l-12-40z" style="fill-rule:nonzero;fill:rgb(0,165,227)"/>
 <path d="m34.688 35.01l-8.238-0.01-4.45 19h9c4.114-17.837 3.689-18.989 3.689-18.989l-1e-3 -1e-3z" style="fill-rule:nonzero;fill:rgb(77,186,194)"/>
 <path d="m32.474 14l-6 21 4.776 19h20.75l-4-10h-9l-3-9 3-11h9l4-10h-19.526z" style="fill-rule:nonzero;fill:url(#_Linear2)"/>
 <defs>
  <linearGradient id="_Linear1" x2="1" gradientTransform="matrix(56,0,0,56,-60,-32)" gradientUnits="userSpaceOnUse">
   <stop style="stop-color:rgb(38,38,38)" offset="0"/>
   <stop style="stop-color:rgb(81,81,81)" offset="1"/>
  </linearGradient>
  <linearGradient id="_Linear2" x2="1" gradientTransform="matrix(.772898 -40 40 .772898 39.2369 54)" gradientUnits="userSpaceOnUse">
   <stop style="stop-color:rgb(0,159,108)" offset="0"/>
   <stop style="stop-color:rgb(0,216,146)" offset="1"/>
  </linearGradient>
 </defs>
</svg>

<?xml version="1.0" encoding="UTF-8" standalone="no"?>
<!DOCTYPE svg PUBLIC "-//W3C//DTD SVG 1.1//EN" "http://www.w3.org/Graphics/SVG/1.1/DTD/svg11.dtd">
<svg width="100%" height="100%" viewBox="0 0 64 64" version="1.1" xmlns="http://www.w3.org/2000/svg" xmlns:xlink="http://www.w3.org/1999/xlink" xml:space="preserve" xmlns:serif="http://www.serif.com/" style="fill-rule:evenodd;clip-rule:evenodd;stroke-linejoin:round;stroke-miterlimit:1.41421;">
    <g transform="matrix(0,-1.05232,-1.05232,0,-1.67435,-1.67435)">
        <path d="M-4,-47.397C-4,-54.353 -9.647,-60 -16.603,-60L-47.397,-60C-54.353,-60 -60,-54.353 -60,-47.397L-60,-16.603C-60,-9.647 -54.353,-4 -47.397,-4L-16.603,-4C-9.647,-4 -4,-9.647 -4,-16.603L-4,-47.397Z" style="fill:url(#_Linear1);"/>
    </g>
    <path d="M10,14L20,14L30.538,50.67L31.25,54L22,54L10,14Z" style="fill:rgb(0,165,227);fill-rule:nonzero;"/>
    <path d="M34.688,35.01L26.45,35L22,54L31,54C35.114,36.163 34.689,35.011 34.689,35.011L34.688,35.01Z" style="fill:rgb(77,186,194);fill-rule:nonzero;"/>
    <path d="M32.474,14L26.474,35L31.25,54L52,54L48,44L39,44L36,35L39,24L48,24L52,14L32.474,14Z" style="fill:url(#_Linear2);fill-rule:nonzero;"/>
    <defs>
        <linearGradient id="_Linear1" x1="0" y1="0" x2="1" y2="0" gradientUnits="userSpaceOnUse" gradientTransform="matrix(56,0,0,56,-60,-32)"><stop offset="0" style="stop-color:rgb(38,38,38);stop-opacity:1"/><stop offset="1" style="stop-color:rgb(81,81,81);stop-opacity:1"/></linearGradient>
        <linearGradient id="_Linear2" x1="0" y1="0" x2="1" y2="0" gradientUnits="userSpaceOnUse" gradientTransform="matrix(0.772898,-40,40,0.772898,39.2369,54)"><stop offset="0" style="stop-color:rgb(0,159,108);stop-opacity:1"/><stop offset="1" style="stop-color:rgb(0,216,146);stop-opacity:1"/></linearGradient>
    </defs>
</svg>
